X: 42216
T: Way Out Yonder
R: jig
M: 6/8
K: Gmajor
|:DEF G2G|GDF G2G|GAA G=FE|EGA A2A|DEF G2G|GDF G2D|BFG G=FE|1 E2B, E2E:|2 E2B, Ez2||
|:E2E GAA|AB/c/B B2A|Acd dcB|B2B/c/ B/c/BG|E2E GAA|A2A/B/ A2G|GAB B2A|1 AG=F E2B,:|2 AG=F E3||
|:E/=F/EE GAA|A2A A2G|ABA G=FE|E/=F/EE GAA|DEF GGG|GDF G/F/GG|BFG G=FE|E/=F/EB, E/E/EE:|
|:DEF GGG|GDF GGG|GAA G=FE|EGA AAA|DEF GGG|GDF GGG|BFA G=FE|E/=F/EB, E/E/EE:|
|:A/B/AA cBA|AGF E2D|GAA AAG|FED DFG|D/E/DD cBA|AGF E/F/ED|GAA AAG|1 FED D/E/DC:|2 FDE Dz2||
|:FED DA,D|E/F/ED DA,D|DEF G/A/GF|E/F/ED DFA|FED DA,D|E/F/ED DA,D|DEF G/A/GF|1 FED DDD:|2 FED Dz2||
|:DGA A/B/AG|GFE DEF|E/F/ED DCA,|B,/C/B,B, DEE|DEF G/A/GF|E/F/ED DEF|E/F/ED DCA,|B,B,B, B,2B,:|
|:B2d cBA|BAc B2F|A2B AcB|BAc B2A|B2d c2B|BAc B2A|B2B AcB|1 BAc B2A:|2 BAc Bz2||
|:DGA AAG|GFE DEF|E/F/ED DCA,|B,B,B, DEE|DEF G/A/GF|E2D DEF|E2D DCA,|B,2B, B,2B,:|
|:B2d cBA|BAc B2F|A2B AcB|BAc B2A|B2d c2B|BAc B2A|B2B AcB|1 BAc B2A:|2 BAc Bz2||
|:GAB c2B|BAG ABG|G2A AG=F|E2E GAB|B2B cBA|dcB BAG|BAG G=FE|1 EEB, EEE:|2 EEB,Ez2||

